X:836
T:Chase me Charlie
R:Slide
O:Ireland
P:See also: The cock o' the north (jig)
B:Irish Traditional Music Session Tunes 3 p7
S:Fr. Charlie Coen, Augusta 1993 (?)
Z:Transcription:?, arr., chords:Mike Long
M:12/8
L:1/8
K:G
"G"D2E G2A B2e dBA|"G"BdB "D"ABA "C"G2A BGE|\
"G"D2E G2A B2e dBA|"G"BdB "D"ABA [1 "G"G3 G2E:|[2 "G"G2G GBd|]
|:"G"g2d "C"e2d "G"g2d "C"e2d|"G"BdB "(D)"ABA "C"G2A BGE|\
"G"D2E G2A B2e dBA|"G"BdB "D"ABA [1 "G"G2G GBd:|[2 "G"G3 G3|]
